img/presentation/header/gear.svg

<svg width="39" height="43" viewBox="0 0 39 43" fill="none" xmlns="http://www.w3.org/2000/svg">
<path d="M38.1356 26.5544L34.6987 24.5052C35.0461 22.5718 35.0461 20.589 34.6987 18.6556L38.1356 16.6063C38.3296 16.4916 38.4795 16.3117 38.5603 16.0967C38.6411 15.8818 38.6479 15.6447 38.5796 15.4252C37.6898 12.4921 36.1793 9.79924 34.1574 7.5411C34.0082 7.37438 33.8086 7.26465 33.5912 7.2298C33.3739 7.19495 33.1514 7.23702 32.9602 7.34916L29.5232 9.39843C28.0769 8.11468 26.4098 7.12209 24.6084 6.47217V2.39725C24.6084 2.17001 24.5331 1.94958 24.3951 1.7724C24.2571 1.59522 24.0646 1.4719 23.8494 1.42282C20.9425 0.756466 17.9291 0.756466 15.0222 1.42282C14.807 1.4719 14.6144 1.59522 14.4764 1.7724C14.3384 1.94958 14.2632 2.17001 14.2632 2.39725V6.49284C12.4666 7.15344 10.8013 8.14495 9.34835 9.4191L5.9114 7.36983C5.72088 7.25499 5.49778 7.21137 5.2797 7.24634C5.06162 7.2813 4.8619 7.3927 4.7142 7.56177C2.68897 9.81743 1.17811 12.5111 0.291998 15.4458C0.221989 15.6653 0.227967 15.9029 0.308922 16.1183C0.389877 16.3337 0.540792 16.5135 0.735933 16.627L4.17288 18.6763C3.82543 20.6097 3.82543 22.5924 4.17288 24.5258L0.735933 26.5751C0.541959 26.6898 0.39205 26.8697 0.311249 27.0847C0.230448 27.2997 0.223653 27.5367 0.291998 27.7562C1.18182 30.6893 2.69223 33.3822 4.7142 35.6403C4.86338 35.807 5.06292 35.9168 5.28032 35.9516C5.49772 35.9865 5.72016 35.9444 5.9114 35.8322L9.34835 33.783C10.7947 35.0667 12.4618 36.0593 14.2632 36.7092V40.7842C14.2632 41.0114 14.3384 41.2318 14.4764 41.409C14.6144 41.5862 14.807 41.7095 15.0222 41.7586C17.9291 42.4249 20.9425 42.4249 23.8494 41.7586C24.0646 41.7095 24.2571 41.5862 24.3951 41.409C24.5331 41.2318 24.6084 41.0114 24.6084 40.7842V36.6827C26.405 36.0221 28.0703 35.0306 29.5232 33.7564L32.9602 35.8057C33.1507 35.9205 33.3738 35.9641 33.5919 35.9292C33.8099 35.8942 34.0097 35.7828 34.1574 35.6137C36.1826 33.3581 37.6935 30.6645 38.5796 27.7297C38.6423 27.5107 38.6327 27.2766 38.5523 27.0639C38.472 26.8511 38.3254 26.672 38.1356 26.5544V26.5544ZM19.4301 28.2464C18.1502 28.2476 16.8989 27.8572 15.8343 27.1248C14.7698 26.3923 13.94 25.3507 13.45 24.1318C12.96 22.9129 12.8317 21.5715 13.0816 20.2774C13.3314 18.9833 13.948 17.7948 14.8534 16.8622C15.7587 15.9296 16.9122 15.2949 18.1676 15.0385C19.423 14.7821 20.724 14.9155 21.9058 15.4217C23.0877 15.928 24.0973 16.7845 24.8068 17.8826C25.5163 18.9808 25.8938 20.2712 25.8915 21.5907C25.8862 23.3558 25.2032 25.0468 23.9918 26.2941C22.7804 27.5413 21.1392 28.2433 19.4272 28.2464H19.4301Z" fill="#BD94FF"/>
</svg>

<svg width="39" height="43" fill="none" xmlns="http://www.w3.org/2000/svg"><path d="M38.136 26.554l-3.437-2.049a16.546 16.546 0 000-5.85l3.437-2.049a.999.999 0 00.424-.51c.081-.214.088-.451.02-.67a20.92 20.92 0 00-4.423-7.885.949.949 0 00-1.197-.192L29.523 9.4a15.153 15.153 0 00-4.915-2.927V2.397a1.02 1.02 0 00-.213-.625.964.964 0 00-.546-.35 19.739 19.739 0 00-8.827 0 .965.965 0 00-.546.35 1.017 1.017 0 00-.213.625v4.096a15.646 15.646 0 00-4.915 2.926L5.911 7.37a.935.935 0 00-1.197.193 20.795 20.795 0 00-4.422 7.884c-.07.22-.064.457.017.672a.99.99 0 00.427.509l3.437 2.05a16.544 16.544 0 000 5.849l-3.437 2.05a.999.999 0 00-.425.509c-.08.215-.087.452-.019.671a20.92 20.92 0 004.422 7.884.948.948 0 001.197.192l3.437-2.049a15.154 15.154 0 004.915 2.926v4.075c0 .227.075.448.213.625s.331.3.546.35a19.74 19.74 0 008.827 0 .964.964 0 00.546-.35c.138-.177.213-.398.213-.625v-4.101a15.644 15.644 0 004.915-2.927l3.437 2.05a.936.936 0 001.197-.192 20.794 20.794 0 004.423-7.884 1.06 1.06 0 00-.028-.666 1.023 1.023 0 00-.416-.51zM19.43 28.246a6.33 6.33 0 01-3.596-1.121 6.628 6.628 0 01-2.384-2.993 6.86 6.86 0 01-.368-3.855 6.733 6.733 0 011.771-3.415 6.409 6.409 0 013.315-1.823 6.288 6.288 0 013.738.383 6.515 6.515 0 012.9 2.46 6.816 6.816 0 011.085 3.709 6.782 6.782 0 01-1.9 4.703 6.38 6.38 0 01-4.564 1.952h.003z" fill="#BD94FF"/></svg>
